X: 43187
T: Wise Maid, The
R: reel
M: 4/4
K: Dmajor
|:DE|F2FG FEDE|F2AB AFED|d2eg fdec|dBAF BE~E2|
F2FG FEDE|F2AB AFED|d2eg fdec|dBAG FD:|
|:FA|d2AG FDFA|dfaf gfeg|fAdf eAce|dfed cA ~A2|
BDGB ADFA|dfaf gfed|Bdce dBAG|FGEF D2:|

